X: 16143
T: Green Grow The Rushes
R: barndance
M: 4/4
K: Gmajor
D|:G2BG BGGB|A/A/A ed eAAB|c2ce dBGB|1 A/B/c BA GEED:|2 A/B/c BA GEEA||
G/G/G gf gddg|eaa^g aeef|gage dcBG|A/B/c BA GEEA|
Gggf gddg|eaa^g aeef|gbeg dgBG|A/B/c BA GEE||

